src/assets/icons/wallet.svg

<svg fill="#FF007A" width="21" height="20" viewBox="0 0 21 20" fill="none" xmlns="http://www.w3.org/2000/svg">
<path fill-rule="evenodd" clip-rule="evenodd" d="M13.9506 0.402418C15.0126 0.0989696 16.1196 0.713954 16.423 1.77602C16.4741 1.95471 16.5 2.13963 16.5 2.32547L16.5 3.99993H18.5C19.6046 3.99993 20.5 4.89536 20.5 5.99993V17.9999C20.5 19.1045 19.6046 19.9999 18.5 19.9999H2.5C1.39543 19.9999 0.5 19.1045 0.5 17.9999H0.526736C0.508963 17.8923 0.5 17.7833 0.5 17.674V5.75404C0.5 4.86108 1.09195 4.0763 1.95056 3.83099L13.9506 0.402418ZM8.63937 17.9999H18.5V5.99993H16.5L16.5 7.99994H18.5V9.99994H16.5L16.5 14.2454C16.5 15.1384 15.908 15.9232 15.0494 16.1685L8.63937 17.9999ZM2.5 5.7541V17.6741L14.5 14.2455V2.32553L2.5 5.7541ZM12.5 7.99993C12.5 8.55222 12.0523 8.99993 11.5 8.99993C10.9477 8.99993 10.5 8.55222 10.5 7.99993C10.5 7.44765 10.9477 6.99993 11.5 6.99993C12.0523 6.99993 12.5 7.44765 12.5 7.99993Z" />
</svg>

<svg width="21" height="20" fill="none" xmlns="http://www.w3.org/2000/svg"><path clip-rule="evenodd" d="M13.95.402a2 2 0 0 1 2.55 1.923V4h2a2 2 0 0 1 2 2v12a2 2 0 0 1-2 2h-16a2 2 0 0 1-2-2h.027a2 2 0 0 1-.027-.326V5.754a2 2 0 0 1 1.45-1.923l12-3.429ZM8.64 18h9.86V6h-2v2h2v2h-2v4.245a2 2 0 0 1-1.45 1.924l-6.41 1.83ZM2.5 5.754v11.92l12-3.428V2.325l-12 3.428ZM12.5 8a1 1 0 1 1-2 0 1 1 0 0 1 2 0Z"/></svg>
